dist/images/svg/close.svg

<svg width="24" height="24" viewBox="0 0 24 24" xmlns="http://www.w3.org/2000/svg" xmlns:xlink="http://www.w3.org/1999/xlink"><title>Elements / Icons / S / Close</title><defs><path d="M13.267 11.853l4.439 4.439-1.414 1.414-4.439-4.439-4.439 4.439L6 16.292l4.439-4.439L6 7.414 7.414 6l4.439 4.439L16.292 6l1.414 1.414-4.439 4.439z" id="a"/></defs><use fill="#fff" xlink:href="#a" fill-rule="evenodd"/></svg>

<?xml version="1.0" encoding="UTF-8"?>
<svg width="24px" height="24px" viewBox="0 0 24 24" version="1.1" xmlns="http://www.w3.org/2000/svg" xmlns:xlink="http://www.w3.org/1999/xlink">
    <!-- Generator: Sketch 49.1 (51147) - http://www.bohemiancoding.com/sketch -->
    <title>Elements / Icons / S / Close</title>
    <desc>Created with Sketch.</desc>
    <defs>
        <path d="M13.267,11.853 L17.706,16.292 L16.292,17.706 L11.853,13.267 L7.414,17.706 L6,16.292 L10.439,11.853 L6,7.414 L7.414,6 L11.853,10.439 L16.292,6 L17.706,7.414 L13.267,11.853 Z" id="path-1"></path>
    </defs>
    <g id="Symbols" stroke="none" stroke-width="1" fill="none" fill-rule="evenodd">
        <g id="Elements-/-Icons-/-S-/-Close">
            <mask id="mask-2" fill="white">
                <use xlink:href="#path-1"></use>
            </mask>
            <use id="Mask" fill="#fff" xlink:href="#path-1"></use>
        </g>
    </g>
</svg>
